X: 474
T: Bûselik Peşrev
C: Bolâhenk Nuri Bey
O: Turkey
F: http://compmusic.upf.edu/node/140
N: buselik--pesrev--devrikebir----bolahenk_nuri_bey
N: makam= buselik
N: form= pesrev
N: usul= devrikebir = 28/4
M: 28/4
L: 1/16
K: C    
Q: 1/4=60
%%MIDI tuningsystem comma53
c4 c2c2 c4 e4  | d2f2 e2d2 c2B2 c2d2  | \
w:   |   | 
c4 B2c2 c2c4cB  | B3A A2AG G4 A2B2  | 
w:   |   | 
c4 d4 d2_7/8e4ed  | dccB c2d2 c4 d4  | \
w:   |   | 
d2_7/8e2 d2c2 dcBc d4  | 
w:   | 
z4 d2e2 d4 e4  | d2_7/8e4ed =edcd e4  | \
w:   |   | 
z4 e2f2 f2a2 g2f2  | 
w:   | 
f2e4d2 d2ed dccB  | c4 B2c2 d2f2 e2d2  | \
w:   |   | 
d2c2 c2B2 BAA^G A4  | 
w:   | 
z4 B2c2 c2c4cB  | A8 E8  | A6z2 B2c2 B4  | \
w:   |   |   | 
c2d2 c4 d2e2 d2e2  | 
w:   | 
e8 e4 d2e2  | f3e d4 d4 c2d2  | e3d c4 c3B c2d2  | \
w:   |   |   | 
e2d2 c2B2 A4 e4  | 
w:   | 
d4 e2d2 c4 d2c2  | B2d2 c2B2 B3A G4  | \
w:   |   | 
z4 B2c2 c8  | z2cd c2B2 BA^GA B4  | 
w:   |   | 
z4 A2A2 A4 e4  | e2d2 c2B2 d2c2 B2A2  | \
w:   |   | 
c3B BAA^G A6z2  | 
w:   | 
d6e2 e8  | ede2 c2d2 c2_1/4B2 c2d2  | \
w:   |   | 
e2d2 c2_1/4B2 c3B A4  | A4 ^f2g2 f2g2 f2e2  | 
w:   |   | 
e4 e2e2 e2f4ed  | edd^c d2e2 d4 e4  | \
w:   |   | 
e2g4^fe e6z2  | 
w:   | 
g8 ^f8  | ^f3e f2g2 f3e edd^c  | d4 ^c2d2 e2^f2 g2ab  | \
w:   |   |   | 
a2g4^f2 g3f e4  | 
w:   | 
e4 e2e2 f3e d2e2  | d4 d2c2 e4 e2d2  | \
w:   |   | 
z2d4dc z2c4c_1/4B  | 
w:   | 
z2_7/8B4A2 d^cBA G4  | G4 ^F2G2 A2_1/4B4AG  | \
w:   |   | 
z2G4G^F F3E G2FE  | 
w:   | 
D4 E4 E2^F4G2  | ^F3E D2E2 D4 E4  | E4 E2^F2 G4 A4  | \
w:   |   |   | 
_1/4B4 c4 d4 e4  | d4 e2d2 c4 d2c2  | 
w:   |   | 
B2d2 c2B2 B3A G4  | z4 B2c2 c8  | z2cd c2B2 BA^GA B4  | 
w:   |   |   | 
z4 A2A2 A4 e4  | e2d2 c2B2 d2c2 B2A2  | \
w:   |   | 
c3B BAA^G A6z2  | 
w:   | 
d6e2 e8  | ede2 c2d2 c2_1/4B2 c2d2  | \
w:   |   | 
e2d2 c2_1/4B2 c3B A4  | A4 ^f2g2 f2g2 f2e2  | 
w:   |   | 
e4 e2e2 e2f4ed  | edd^c d2e2 d4 e4  | \
w:   |   | 
e2g4^fe e6z2  | 
w:   | 
g8 ^f8  | ^f3e f2g2 f3e edd^c  | d4 ^c2d2 e2^f2 g2ab  | \
w:   |   |   | 
a2g4^f2 g3f e4  | 
w:   | 
e4 e2e2 f3e d2e2  | d4 d2c2 e4 e2d2  | \
w:   |   | 
z2d4dc z2c4c_1/4B  | 
w:   | 
z2_7/8B4A2 d^cBA G4  | G4 ^F2G2 A2_1/4B4AG  | \
w:   |   | 
z2G4G^F F3E G2FE  | 
w:   | 
D4 E4 E2^F4G2  | ^F3E D2E2 D4 E4  | E4 E2^F2 G4 A4  | \
w:   |   |   | 
_1/4B4 c4 d4 e4  | g6a2 a6z2  | 
w:   |   | 
c'4 _1/4b4 a4 g4  | ^f3e f2g2 f2a4gf  | \
w:   |   | 
^f3e efed d6e2  | d6f2 e2d2 c2_1/4B2  | 
w:   |   | 
c2d2 c4 d2e2 d4  | ^f2g2 f2g2 a6z2  | \
w:   |   | 
_1/4b8 c'6_7/8d'2  | c'2_7/8d'e' d'2c'2 _1/4b4 c'2d'2  | 
w:   |   | 
c'4 _1/4b4 c'2b2 c'2b2  | c'3_1/4b a4 a8  | \
w:   |   | 
_b3a ^g2a2 g2a2 b2ba  | a8 z4 a2_1/4b2  | 
w:   |   | 
c'2_1/4d'2 c'2_1/4b2 baab c'4  | z4 c'2_7/8d'2 c'4 _1/4b4  | \
w:   |   | 
c'2_7/8d'2 c'2_1/4b2 c'4 d'4  | c'4 _7/8d'2c'2 _1/4b4 c'2b2  | 
w:   |   | 
a4 _b2a2 b3a ^g2a2  | a2^g2 ^1/4f4 z4 a2a2  | \
w:   |   | 
_b3a b2c'2 b2c'4ba  | 
w:   | 
a8 a6z2  | z4 _b4 b2d'2 c'2b2  | b2a4g2 g2gf f4  | \
w:   |   |   | 
z4 e2f2 g2_7/8a4g2  | 
w:   | 
g3f f3e e3_7/8d d3c  | c4 c2_7/8d2 e2f2 g2_7/8a2  | \
w:   |   | 
g2f2 e2_7/8d2 d2c2 d2c2  | 
w:   | 
c6g2 g6z2  | _7/8a4 g2f2 g4 f2e2  | f4 e2_7/8d2 c2d4c2  | \
w:   |   |   | 
c3_7/8B A4 z4 A2B2  | 
w:   | 
c2d4c2 B3A G2A2  | G4 A4 A2c4_BA  | A6_1/4B2 c4 d4  | \
w:   |   |   | 
e3d c2d2 e6z2  | 
w:   | 
_1/4B8 c6_7/8d2  | _7/8d3c c2_1/4B2 B3A G4  | \
w:   |   | 
z4 A2_1/4B2 c2_7/8de d2c2  | _7/8d3c _1/4B2c2 B4 d2c2  | 
w:   |   | 
c4 _7/8d2c_1/4B BAAB c4  | z4 c2_7/8d2 c4 d4  | \
w:   |   | 
e2f2 e2g2 f6z2  | _7/8a4 g2f2 g4 f2e2  | 
w:   |   | 
f4 e2_7/8d2 c2_7/8a2 g2f2  | f3e e3_7/8d d3c _1/4B2c2  | \
w:   |   | 
_1/4B2d2 c4 z4 B2d2  | 
w:   | 
_7/8d3c c3_1/4B B3A G2A2  | _1/4B8 _7/8d3c c3B  | \
w:   |   | 
_1/4B3A A3G A2B4AG  | 
w:   | 
AG^F^E F4 z4 F2G2  | ^F3E D4 F2G2 F2G2  | \
w:   |   | 
A8 A4 A2_1/4B2  | c4 c2d2 e4 e2f2  | 
w:   |   | 
e2^f2 d4 z2g4f2  | g3^f g2a2 _1/4b2a2 g2f2  | \
w:   |   | 
^f3e g2fe e6z2  | 
w:   | 
d4 e2d2 c4 d2c2  | B2d2 c2B2 B3A G4  | \
w:   |   | 
z4 B2c2 c8  | z2cd c2B2 BA^GA B4  | 
w:   |   | 
z4 A2A2 A4 e4  | e2d2 c2B2 d2c2 B2A2  | \
w:   |   | 
c3B BAA^G A6z2  | 
w:   | 
d6e2 e8  | ede2 c2d2 c2_1/4B2 c2d2  | \
w:   |   | 
e2d2 c2_1/4B2 c3B A4  | A4 ^f2g2 f2g2 f2e2  | 
w:   |   | 
e4 e2e2 e2f4ed  | edd^c d2e2 d4 e4  | \
w:   |   | 
e2g4^fe e6z2  | 
w:   | 
g8 ^f8  | ^f3e f2g2 f3e edd^c  | d4 ^c2d2 e2^f2 g2ab  | \
w:   |   |   | 
a2g4^f2 g3f e4  | 
w:   | 
e4 e2e2 f3e d2e2  | d4 d2c2 e4 e2d2  | \
w:   |   | 
z2d4dc z2c4c_1/4B  | 
w:   | 
z2_7/8B4A2 d^cBA G4  | G4 ^F2G2 A2_1/4B4AG  | \
w:   |   | 
z2G4G^F F3E G2FE  | 
w:   | 
D4 E4 E2^F4G2  | ^F3E D2E2 D4 E4  | E4 E2^F2 G4 A4  | \
w:   |   |   | 
_1/4B4 c4 d4 e4  | g6a2 a6z2  | 
w:   |   | 
c'4 _1/4b4 a4 g4  | ^f3e f2g2 f2a4gf  | \
w:   |   | 
^f3e efed d6e2  | d6f2 e2d2 c2_1/4B2  | 
w:   |   | 
c2d2 c4 d2e2 d4  | ^f2g2 f2g2 a6z2  | \
w:   |   | 
_1/4b8 c'6_7/8d'2  | c'2_7/8d'e' d'2c'2 _1/4b4 c'2d'2  | 
w:   |   | 
c'4 _1/4b4 c'2b2 c'2b2  | c'3_1/4b a4 a8  | \
w:   |   | 
_b3a ^g2a2 g2a2 b2ba  | a8 z4 a2_1/4b2  | 
w:   |   | 
c'2_1/4d'2 c'2_1/4b2 baab c'4  | z4 c'2_7/8d'2 c'4 _1/4b4  | \
w:   |   | 
c'2_7/8d'2 c'2_1/4b2 c'4 d'4  | c'4 _7/8d'2c'2 _1/4b4 c'2b2  | 
w:   |   | 
a4 _b2a2 b3a ^g2a2  | a2^g2 ^1/4f4 z4 a2a2  | \
w:   |   | 
_b3a b2c'2 b2c'4ba  | 
w:   | 
a8 a6z2  | z4 _b4 b2d'2 c'2b2  | b2a4g2 g2gf f4  | \
w:   |   |   | 
z4 e2f2 g2_7/8a4g2  | 
w:   | 
g3f f3e e3_7/8d d3c  | c4 c2_7/8d2 e2f2 g2_7/8a2  | \
w:   |   | 
g2f2 e2_7/8d2 d2c2 d2c2  | 
w:   | 
c6g2 g6z2  | _7/8a4 g2f2 g4 f2e2  | f4 e2_7/8d2 c2d4c2  | \
w:   |   |   | 
c3_7/8B A4 z4 A2B2  | 
w:   | 
c2d4c2 B3A G2A2  | G4 A4 A2c4_BA  | A6_1/4B2 c4 d4  | \
w:   |   |   | 
e3d c2d2 e6z2  | 
w:   | 
_1/4B8 c6_7/8d2  | _7/8d3c c2_1/4B2 B3A G4  | \
w:   |   | 
z4 A2_1/4B2 c2_7/8de d2c2  | _7/8d3c _1/4B2c2 B4 d2c2  | 
w:   |   | 
c4 _7/8d2c_1/4B BAAB c4  | z4 c2_7/8d2 c4 d4  | \
w:   |   | 
e2f2 e2g2 f6z2  | _7/8a4 g2f2 g4 f2e2  | 
w:   |   | 
f4 e2_7/8d2 c2_7/8a2 g2f2  | f3e e3_7/8d d3c _1/4B2c2  | \
w:   |   | 
_1/4B2d2 c4 z4 B2d2  | 
w:   | 
_7/8d3c c3_1/4B B3A G2A2  | _1/4B8 _7/8d3c c3B  | \
w:   |   | 
_1/4B3A A3G A2B4AG  | 
w:   | 
AG^F^E F4 z4 F2G2  | ^F3E D4 F2G2 F2G2  | \
w:   |   | 
A8 A4 A2_1/4B2  | c4 c2d2 e4 e2f2  | 
w:   |   | 
e2^f2 d4 z2g4f2  | g3^f g2a2 _1/4b2a2 g2f2  | \
w:   |   | 
^f3e g2fe e6z2  | 
w:   | 
|


